X: 10582
M: 2/4
L: 1/16
K: F
ag |\
f2F2F2 ag | fed^c d2d=c |\
ef |\
.a(f~ef) .a(f~ef) | .d(B~AB) .d(B~AB) |
.g(B~AB) .g(B~AB) | .e(c~=Bc) .e(c~Bc) |\
.A(F~EF) .A(F~EF) | .d(B~AB) .d(B~AB) |\


